X:1
T:Our Christmas Tree
T:Our Christmas Tree
T:Henry Stephen Cutler
T:Frederick Darley Ogilby, 1866
T:Public Domain Courtesy of the Cyber Hymnal™
T:Public Domain Courtesy of the Cyber Hymnal™
C:Henry Stephen Cutler
Z:Public Domain
Z:Courtesy of the Cyber Hymnal™
%%score ( 1 2 ) ( 3 4 ) ( 5 6 )
L:1/8
Q:1/4=100
M:4/4
K:F
V:1 treble 
V:2 treble 
V:3 treble 
V:4 treble 
V:5 bass 
V:6 bass 
V:1
 (FG) x6 | [FA]2 [FA]2 [DB]3 [DA] | [^CA]2 [B,F]2 [A,F]2 [F=c]2 | [Fd]2 [Fc]2 (f2 A2) | %4
w: ~ *|~ ~ ~ ~|~ ~ ~ ~|~ ~ ~ *|
w: ~ *|~ ~ ~ ~|~ ~ ~ ~|~ ~ ~ *|
w: ~ *|~ ~ ~ ~|~ ~ ~ ~|~ ~ ~ *|
 [FG]2 [EG]2 F2 x2 |:"^Solo" (FG) x6 | A2 A2 B3 A | A2 F2 F2 c2 | d2 c2 f2 A2 x2 | G6 G2 | %10
w: ~ ~ ~|1.~Our *|Christ- mas tree is|decked once more, In|joy we meet a-|round; It|
w: ~ ~ ~|2.~Our *|Christ- mas tree is|fresh and green, While|skies are cold and|drear; Its|
w: ~ ~ ~|3.~Our *|Christ- mas tree is|shin- ing bright, While|ev- ening shades sur-|round; Thus|
 G3 A B2 d2 | (cd) (cB) !fermata!A2 f2 | (ef) (Af) e2 d2 | c6 x2 ||"^Refrain" (AB) x6 | %15
w: tells of bright- er|things * in * store; Let|sounds * of * praise re-|sound.||
w: har- vest store of|fruit * is * seen, When|win- * ter * blights the|year.|The *|
w: God doth give His|child- * ren * light, When|dark- * ness * falls a-|round.||
 c2 c2 c2 cc | dc A4 (AB) | c2 c2 d3 c | cB G4 (AB) | c2 c2 c2 cc | dc f4 (cB) | A2 G2 F2 E2 | %22
w: |||||||
w: Christ- mas tree is an|ev- er- green, It *|blooms when frost and|snow are seen; The *|Christ- mas tree is for|ev- er bright, It *|shines with ev- er-|
w: |||||||
 F2 F2 F2 z2 | z8 | z6"^Play 3 times" :| %25
w: |||
w: last- ing light.|||
w: |||
V:2
 F2 x6 | x8 | x8 | x4 F4 | x4 F2 x2 |: x8 | x8 | x8 | x10 | x8 | x8 | x8 | x8 | x8 || x8 | x8 | %16
 x8 | x8 | x8 | x8 | x8 | x8 | x8 | x8 | x6 :| %25
V:3
[K:C] z2 z6 | (FG) x6 | [FA]4 [DB]3 [DA] | [^CA]2 [A,F]2 [G,F]2 [F=c]2 | d2 c2 f2 A2 |: G6 [EG]2 | %6
 [DG]3 [DA] [DB]2 [Dd]2 | (cd) (cB) !fermata![FA]2 [Af]2 | (ef) (z d2) x5 | [Ec]6 x2 | (AB) x6 | %11
 [Fc]2 [Fc]2 [Fc]2 [Fc]2 | dc [FA]4 (AB) | [Fc]2 [Fc]2 [Fd]3 [Fc] || (cB) [EG]4 (AB) | %15
 [Fc]2 [Fc]2 [Fc]2 [Fc]2 | (dc) [Ff]4 (cB) | [FA]2 [DG]2 [CF]2 [CE]2 | [CF]2 [DF]2 [CF]2 (cB) | %19
 (AB) (D[GB]) [FA]2 [EG]2 | F2"^Play 3 times" [DF]2 [CF]2 x2 | x8 | x8 | x8 | x6 :| %25
V:4
[K:C] x8 | F2 x6 | x8 | x8 | F8- |: (F2 ED E2) x2 | x8 | G2 E2 x4 | A2 (Af) x (e2 G) (^F=F) | x8 | %10
 F2 x6 | x8 | F2- x3 F2 x | x8 || G2 x3 F2 x | x8 | F2 x3 G2 x | x8 | x8 | x8 | F2 x6 | x8 | x8 | %23
 x8 | x6 :| %25
V:5
 A,B, x6 | (C2 C2) [B,,B,]3 [D,^F,] | [A,,E,]2 [B,,D,]2 [F,,C,]2 [F,A,]2 | B,2 [A,C]2 (C2 =B,2) | %4
 [G,B,]2 [C,B,]2 [F,A,]2 x2 |: (A,B,) x6 | [F,C]4 [B,,B,]3 [D,^F,] | %7
 [A,,E,]2 [B,,D,]2 [F,,C,]2 [F,A,]2 | B,2 [A,C]2 C2 =B,2 x2 | (B,DCB, [C,C]2) [C,C]2 | %10
 [B,,G,]3 [A,,^F,] [G,,G,]2 [=F,A,]2 | C4- !fermata![F,C]2 [F,C]2 | [A,C]2 (ED) C2 =B,2 | %13
 ([C,C]2 CD[A,C][G,B,]) x2 || ([A,C][G,B,]) x6 | [F,A,]2 [F,A,]2 [F,A,]2 [F,A,]2 | B,A, C4 CB, | %17
 [F,A,]2 [F,A,]2 [F,B,]3 [F,A,] | [E,C]2 [C,C]4 (CB,) | [F,A,]2 [F,A,]2 [F,A,]2 [F,A,]2 | %20
 (B,A,) [D,A,]4 [E,C]2 | [F,C]2 [B,,B,]2 [C,A,]2 [C,G,]2 | [F,A,]2 [F,B,]2 [F,A,]2 z2 | %23
 z2 [B,,G,]2 [C,C]2 [C,B,]2 | [F,A,]2 [F,B,]2 [F,A,]2"^Play 3 times" :| %25
V:6
 F,2 x6 | ^F,4 x4 | x8 | =B,2 D,4 x2 | x8 |: F,2 x6 | x8 | x8 | =B,2 D,4 x4 | G,4 x4 | x8 | %11
 E,2 C,2 x4 | x2 F,2 G,4 | x8 || x8 | x8 | F,8- | x8 | x6 F,2 | x8 | F,2 x6 | x8 | x8 | x8 | x6 :| %25

